X:1
T:Bless Us Children Now
T:William W. Bentley
T:Bless Us Children Now
T:Public Domain
T:Public Domain
C:William W. Bentley
Z:Public Domain
%%score ( 1 2 ) ( 3 4 )
L:1/8
M:4/4
K:Eb
V:1 treble 
V:2 treble 
V:3 bass 
V:4 bass 
V:1
 ([EG][FA]) | [GB]2 [Ge]2 [Bd]2 [Ac]2 | [GB]3 [FA] [EG]2 [EB]2 | [DB]2 ([DF][EG]) [FA]2 [Ac]2 | %4
w: 1.~Dear *|Sav- ior, from Thy|throne a- bove, Where|count- less * child- ren|
w: 2.~Thy *|mer- cy led us|thro’ the year That|sweet- ly * passed a-|
w: 3.~Oh, *|may we learn in|ear- ly youth Thy|ho- ly * Word to|
w: 4.~Oh, *|hap- py thought, if,|faith- ful here, We|work and * watch and|
 ([Ac]4 [GB]2) ([EG][FA]) | [GB]2 [Ge]2 [Bd]2 [Ac]2 | [GB]3 [FA] [EG]2 (EF) | %7
w: bow, * Oh, *|let Thy lov- ing|eye be- hold And *|
w: way, * And *|thro’ Thy grace we|ga- ther now To *|
w: prize, * The *|lamp that guides our|feet to Heav’n, Our *|
w: pray, * We’ll *|spend with Thee in|Heav’n at last An *|
 [EG]2 ([FA][EG]) [DF]2 [Dc]2 | E6 ||"^Refrain" ([DF][EG]) | [FA]2 [FA]2 ([Bd][Ac])([GB][FA]) | %11
w: us child- * ren now.||||
w: our fes- * tive day.||||
w: be- yond * the skies.||||
w: less hap- * py day.||||
 ([EG][FA])([GB][Ac]) [GB]2 ([GB][FA]) | [FA]2 [FA]2 ([Bd][Ac])([GB][FA]) | [EG]6 (EF) | %14
w: |||
w: |||
w: |||
w: |||
 .[EG]2 .[EG]2 .[EA]2 .[EA]2 | .[EB]2 .[EB]2 .[Ec]2 [Ae]2 | [Ge]2 [EG]2 ([GB][FA])([EG][DF]) | %17
w: |||
w: |||
w: |||
w: |||
 E6 |] %18
w: |
w: |
w: |
w: |
V:2
 x2 | x8 | x8 | x8 | x8 | x8 | x6 E2 | x8 | E6 || x2 | x8 | x8 | x8 | x6 E2 | x8 | x8 | x8 | E6 |] %18
w: ||||||bless||||||||||||
w: ||||||hail||||||||||||
w: ||||||home||||||||||||
w: ||||||end-||||||||||||
V:3
 z2 | E,8 | E,8 | B,,8 | E,8 | E,8 | E,8 | B,,8 | E,6 || [B,,B,]2 | %10
w: |~|~|~|~|~|~|~|~|Our|
 [B,,B,]2 [B,,B,]2 [B,,B,]2 [B,,B,]2 | [E,B,]2 [E,E]2 [E,E]2 [B,,B,]2 | %12
w: hearts in tune- ful|num- bers wake, Our|
 [B,,B,]2 [B,,B,]2 [B,,B,]2 [B,,B,]2 | [E,B,]6 (G,A,) | .[E,B,]2 .[E,B,]2 .[F,B,]2 .[F,B,]2 | %15
w: tongues with rap- ture|sing, All *|ry, hon- or, praise|
 .[G,E]2 .[G,E]2 .[A,E]2 [A,C]2 | B,2 B,2 [B,,B,]2 (B,A,) | [E,G,]6 |] %18
w: to Thee, Re- deem-|er, Lord and King! *||
V:4
 x2 | x8 | x8 | x8 | x8 | x8 | x8 | x8 | x6 || x2 | x8 | x8 | x8 | x6 E,2 | x8 | x8 | %16
w: |||||||||||||glo-|||
 B,2 B,2 B,,2 x2 | x6 |] %18
w: ||

